X: 1
T: Spring Song
C: by Bob McQuillen, from book 3
C: from Laurie Andres
C: arr. T. Traub 7-29-03
R: reel
M: 4/4
K: A
L: 1/8
E2 |\
"A"A2A2 "E"B2AB | "A"cdec     A2e2 | "D"f2a2 "A"e2a2 | "Bm"ecAc "E"B2E2 |
"A"A2A2 "E"B2AB | "A"cdec "A7"A2E2 | "D"F2A2 "E"GAB2 | "A"A4- A2 :|
|: e2 |\
"D"f2f2 "E"e3f  | "A"efec    A2Bc | "D"d2Bd "A"cBAc | "E"BcBG E2E2 |
"A"A2A2 "E"B2AB | "A"c2c2 "D"d2cd | "A"e2e2 "E"dcB2 | "A"A4- A2 :|
